app/dist/common/images/fate-therapeutics.svg

<svg height="18" width="18" xmlns="http://www.w3.org/2000/svg"><path d="m0 0h18v18h-18z" fill="#393939"/><path d="m11.5 8.5h2.5v2.5h-2.5z" fill="#62fefe"/><path d="m11.5 11.5h2.5v2.5h-2.5z" fill="#7c9d01"/><path d="m4 9a5 5 0 0 1 9.9-1h-2.6a2.5 2.5 0 0 0 -4.8 1v.17a2.33 2.33 0 0 0 2.33 2.33h2.17v2.5h-2.33a4.67 4.67 0 0 1 -4.67-4.67z" fill="#f86900"/></svg>

<!-- by TradingView --><svg xmlns="http://www.w3.org/2000/svg" width="18" height="18"><path fill="#393939" d="M0 0h18v18H0z"/><path d="M11.5 8.5H14V11h-2.5V8.5z" fill="#62FEFE"/><path d="M11.5 11.5H14V14h-2.5v-2.5z" fill="#7C9D01"/><path d="M4 9a5 5 0 019.9-1h-2.6a2.5 2.5 0 00-4.8 1v.17a2.33 2.33 0 002.33 2.33H11V14H8.67A4.67 4.67 0 014 9.33V9z" fill="#F86900"/></svg>
